X: 36
T:Farewell to Whisky
% Nottingham Music Database
S:Nan F-W, via EF
M:4/4
L:1/4
K:D
F/2G/2|"D"A3/2B/2 AF/2G/2|"D"Ad fd|"D"A3/2B/2 AF|"Em"GF "A7"ED|\
"D"A3/2B/2 AF/2G/2|"D"Ad "Bm"f2|"Em"gf "A7"ec|"D"d2 d:||:
K:A
c/2d/2|"A"e3/2f/2 ec/2d/2|"A"ea "D"gf|"A"e3/2f/2 ec|"Bm"dc "E7"BA|\
"A"e3/2f/2 ec/2d/2|"A"ea a2|"D"dc/2B/2 "E7"cB|"A"A2 A:|


